X: 2231
T: Donald Quaich.   a Reel.
O: Very Old.
%R: reel
N: This is version 1, for ABC software that doesn't understand voice overlays
B: Niel Gow & Sons "Complete Repository" v.2 p.23 #1 (top 2 staves continued from previous page)
Z: 2021 John Chambers <jc:trillian.mit.edu>
M: C
L: 1/8
K: Am
% - - - - - - - - - -
V: 1 staves=2
|: ~c2(.e.A) B/B/B dG | ~c2eA aAeA | c2eA TB>cdG | Tc>deA B^GA2 :| ~c3g B/B/B dG | c3g c/c/c ge |
faeg dgBG | Tc>deA B^GA2 ||~c3g B/B/B dG | c3g c/c/c ge | faeg dgBG | ~c>deA B^GA2 |]
% - - - - - - - - - -
% Voice 2 preserves the staff layout in the book.
% Voice 2 also has many shifts between bass and treble staf in the 2nd strain, only bass clef used here.
V: 2 clef=bass middle=d
|:\
[a2c'2e'2][a2c'2e'2] [g2d'2][g2d'2] | [a2c'2e'2][a2c'2e'2] [a2c'2e'2][a2c'2e'2] |\
[a2c'2e'2][a2c'2e'2] [g2b2d'2][g2b2d'2] | [a2c'2e'2][a2c'2e'2] [e2b2e'2][a2c'2e'2] :|\
[c'2e'2g'2][c'2e'2g'2] [g2b2d'2][g2b2d'2] | [c'2e'2g'2][c'2e'2g'2] [c'2e'2g'2][c'2e'2g'2] |
[c'2f'2a'2][c'2e'2g'2] [g2b2d'2][g2b2d'2] | [a2c'2e'2][a2c'2e'2] [e2b2e'2][A2a2] ||\
[c'2e'2g'2][c'2e'2g'2] [g2b2d'2][g2b2d'2] | [c'2e'2g'2][c'2e'2g'2] [c'2e'2g'2][c'2e'2g'2] |\
[c'2f'2a'2][c'2e'2g'2] [g2b2d'2][g2b2d'2] | [a2c'2e'2][a2c'2e'2] [e2b2e'2][A2a2] |]
